symbols/web/wifi_tethering/materialsymbolsrounded/wifi_tethering_wght300gradN25_24px.svg

<svg xmlns="http://www.w3.org/2000/svg" height="24" width="24"><path d="M12 14.45q-.6 0-1.025-.425Q10.55 13.6 10.55 13q0-.6.425-1.025.425-.425 1.025-.425.6 0 1.025.425.425.425.425 1.025 0 .6-.425 1.025-.425.425-1.025.425Zm-4.15 2.075q-.6-.725-.95-1.625T6.55 13q0-2.275 1.588-3.863Q9.725 7.55 12 7.55q2.275 0 3.863 1.587Q17.45 10.725 17.45 13q0 1-.35 1.912-.35.913-.95 1.613-.175.225-.462.225-.288 0-.513-.225-.2-.2-.2-.487 0-.288.175-.538.425-.5.662-1.137.238-.638.238-1.363 0-1.675-1.187-2.863Q13.675 8.95 12 8.95t-2.862 1.187Q7.95 11.325 7.95 13q0 .725.238 1.363.237.637.662 1.137.175.25.175.538 0 .287-.2.487-.225.225-.513.225-.287 0-.462-.225ZM5.025 19.35q-1.15-1.275-1.812-2.888Q2.55 14.85 2.55 13q0-1.95.75-3.675.75-1.725 2.025-3t3-2.025Q10.05 3.55 12 3.55q1.95 0 3.675.75 1.725.75 3 2.025t2.025 3q.75 1.725.75 3.675 0 1.85-.662 3.462-.663 1.613-1.813 2.888-.175.225-.462.225-.288 0-.513-.225-.2-.2-.188-.475.013-.275.188-.5.975-1.075 1.513-2.437.537-1.363.537-2.938 0-3.35-2.35-5.7T12 4.95q-3.35 0-5.7 2.35T3.95 13q0 1.55.55 2.925.55 1.375 1.5 2.45.2.225.2.5t-.225.5q-.2.2-.487.187-.288-.012-.463-.212Z"/></svg>

<svg xmlns="http://www.w3.org/2000/svg" height="24" width="24"><path d="M12 14.45Q11.4 14.45 10.975 14.025Q10.55 13.6 10.55 13Q10.55 12.4 10.975 11.975Q11.4 11.55 12 11.55Q12.6 11.55 13.025 11.975Q13.45 12.4 13.45 13Q13.45 13.6 13.025 14.025Q12.6 14.45 12 14.45ZM7.85 16.525Q7.25 15.8 6.9 14.9Q6.55 14 6.55 13Q6.55 10.725 8.138 9.137Q9.725 7.55 12 7.55Q14.275 7.55 15.863 9.137Q17.45 10.725 17.45 13Q17.45 14 17.1 14.912Q16.75 15.825 16.15 16.525Q15.975 16.75 15.688 16.75Q15.4 16.75 15.175 16.525Q14.975 16.325 14.975 16.038Q14.975 15.75 15.15 15.5Q15.575 15 15.812 14.363Q16.05 13.725 16.05 13Q16.05 11.325 14.863 10.137Q13.675 8.95 12 8.95Q10.325 8.95 9.138 10.137Q7.95 11.325 7.95 13Q7.95 13.725 8.188 14.363Q8.425 15 8.85 15.5Q9.025 15.75 9.025 16.038Q9.025 16.325 8.825 16.525Q8.6 16.75 8.312 16.75Q8.025 16.75 7.85 16.525ZM5.025 19.35Q3.875 18.075 3.213 16.462Q2.55 14.85 2.55 13Q2.55 11.05 3.3 9.325Q4.05 7.6 5.325 6.325Q6.6 5.05 8.325 4.3Q10.05 3.55 12 3.55Q13.95 3.55 15.675 4.3Q17.4 5.05 18.675 6.325Q19.95 7.6 20.7 9.325Q21.45 11.05 21.45 13Q21.45 14.85 20.788 16.462Q20.125 18.075 18.975 19.35Q18.8 19.575 18.513 19.575Q18.225 19.575 18 19.35Q17.8 19.15 17.812 18.875Q17.825 18.6 18 18.375Q18.975 17.3 19.513 15.938Q20.05 14.575 20.05 13Q20.05 9.65 17.7 7.3Q15.35 4.95 12 4.95Q8.65 4.95 6.3 7.3Q3.95 9.65 3.95 13Q3.95 14.55 4.5 15.925Q5.05 17.3 6 18.375Q6.2 18.6 6.2 18.875Q6.2 19.15 5.975 19.375Q5.775 19.575 5.488 19.562Q5.2 19.55 5.025 19.35Z"/></svg>
